X:1
T:Der går et stille tog
T:Der går et stille tog
T:Thorvald Lammers (1841-1922)
T:Bjørnson
C:Thorvald Lammers (1841-1922)
%%score [ 1 2 3 4 ]
L:1/8
Q:1/4=70
M:4/4
K:G
V:1 treble nm="Soprano"
V:2 treble nm="Alto"
V:3 treble-8 nm="Tenor"
V:4 bass nm="Bass"
V:1
 B2 | B3 B d2 d2 | G4 z2 G2 | G2 F2 c2 B2 | B4 A2 A2 | G3 E c2 A2 | G4 z2 B2 | B3 B G2 E2 | %8
w: Der|går et stil- le|tog I-|gjen- nem kamp- ens|bul- der, Med|bønn på al- le|sprog. Det|bøi- er mot den|
 e3 c d2 B2 | d3 c B2 A2 | B4 B2 B2 | G3 E F2 A2 | G4 z2 |] %13
w: fal- ne ned, Med|kor- set på sin|skul- der, Med|bud fra hjem og|fred.|
V:2
 D2 | D3 E F2 F2 | E4 z2 E2 | D2 D2 D2 D2 | D4 D2 F2 | E3 E E2 D2 | B,4 z2 D2 | ^D3 F E2 E2 | %8
w: Der|går et stil- le|tog I-|gjen- nem kamp- ens|bul- der, Med|bønn på al- le|sprog. Det|bøi- er mot den|
 E3 G G2 G2 | G3 G G2 F2 | F4 F2 F2 | E3 C D2 C2 | B,4 z2 |] %13
w: fal- ne ned, Med|kor- set på sin|skul- der, Med|bud fra hjem og|fred.|
V:3
 G2 | G3 G A2 c2 | B4 z2 c2 | A2 A2 A2 G2 | G4 F2 d2 | B3 G G2 F2 | G4 z2 G2 | F3 B B2 B2 | %8
w: Der|går et stil- le|tog I-|gjen- nem kamp- ens|bul- der, Med|bønn på al- le|sprog. Det|bøi- er mot den|
 c3 c B2 d2 | d3 e d2 e2 | (e2 ^c2) ^d2 B2 | B3 c A2 F2 | D4 z2 |] %13
w: fal- ne ned, Med|kor- set på sin|skul- * der, Med|bud fra hjem og|fred.|
V:4
 G,,2 | G,3 E, D,2 D,2 | E,4 z2 C,2 | D,2 D,2 F,2 G,2 | D,4 D,2 D,2 | E,3 E, C,2 D,2 | %6
w: Der|går et stil- le|tog I-|gjen- nem kamp- ens|bul- der, Med|bønn på al- le|
 G,,4 z2 G,,2 | B,,3 ^D, E,2 G,2 | C,3 E, G,2 G,2 | B,,3 C, D,2 C,2 | B,,4 B,,2 ^D,2 | %11
w: sprog. Det|bøi- er mot den|fal- ne ned, Med|kor- set på sin|skul- der, Med|
 E,3 A, D,2 D,2 | G,,4 z2 |] %13
w: bud fra hjem og|fred.|

